public/Leaf.svg

<svg width="330" height="287" viewBox="0 0 330 287" fill="none" xmlns="http://www.w3.org/2000/svg">
<path d="M111.383 100.799C101.597 87.586 88.8643 59.5106 97.0412 41.4642C112.21 7.98667 166.004 -5.20893 183.991 5.22017C179.739 5.583 166.341 10.75 152.367 19.5319C139.664 27.5146 134.416 48.5362 150.796 34.8321C156.53 30.0342 173.075 17.4772 183.982 14.9128C206.071 9.71966 227.369 13.2913 241.523 26.7267C231.623 26.4211 212.635 26.5966 192.2 33.933C166.656 43.1035 157.192 54.9753 157.726 56.2146C158.26 57.454 157.52 56.0092 180.934 46.532C218.261 31.4231 263.809 31.6468 289.284 68.6157C264.158 51.8715 242.092 55.7084 211.752 60.1411C196.866 62.3162 170.231 72.8685 173.313 75.8263C176.396 78.784 180.069 76.7111 191.9 73.6949C203.73 70.6786 228.109 69.1169 243.11 70.3674C276.161 73.1226 309.933 72.772 326.223 128.557C298.549 100.76 259.459 97.6067 225.774 96.303C218.636 96.0268 174.398 98.5158 176.305 109.927C177.451 116.781 197.819 112.009 203.55 111.621C209.282 111.233 235.806 108.901 243.382 108.82C250.959 108.739 267.281 108.196 287.215 117.362C307.15 126.528 316.965 138.708 319.94 143.182C322.914 147.656 328.459 162.288 328.078 173.106C327.773 181.761 327.924 190.929 328.038 194.431C323.701 187.605 311.825 172.19 293.583 160.947C270.781 146.894 252.465 142.111 243.73 140.609C234.995 139.107 221.284 138.793 221.023 143.927C220.761 149.06 234.608 156.146 241.443 159.201C248.279 162.256 264.375 169.064 270.319 172.258C276.262 175.452 292.749 186.947 303.297 196.852C313.845 206.756 316.151 215.42 317.355 229.473C318.318 240.716 309.312 264.886 306.249 269.186C308.345 262.568 305.97 252.488 297.634 242.362M111.383 100.799L102.505 99.8489M111.383 100.799C112.545 94.2977 111.745 71.2483 115.382 59.1986C119.929 44.1365 125.787 36.3439 132.718 28.5814M111.383 100.799C114.655 94.0417 123.867 77.6629 134.535 66.2082C147.87 51.8898 164.021 38.807 173.001 32.4882M111.383 100.799C113.501 101.374 116.321 102.31 119.744 103.643M111.383 100.799C79.1617 106.056 37.8921 150.367 45.5089 183.277M297.634 242.362C267.387 230.473 287.889 253.204 274.467 252.206C263.666 251.404 252.138 248.018 233.049 226.241C221.442 213 206.492 173.043 200.836 182.751C194.36 193.865 202.676 218.297 218.16 239.089C237.222 264.685 264.588 269.262 266.994 270.43C263.23 270.378 236.547 283.668 222.911 281.362C212.703 279.635 194.969 275.368 180.258 251.827C165.547 228.287 163.077 196.695 162.476 188.014C161.996 181.07 164.495 161.714 165.805 152.904C165.579 148.552 163.589 141.711 157.437 149.162C149.748 158.476 152.842 200.249 156.922 219.432C161.578 241.324 177.873 270.657 196.67 285.196C189.602 283.955 168.038 282.875 154.45 276.779C137.465 269.158 126.641 261.631 120.207 242.728C113.774 223.825 112.012 207.801 112.502 193.262C112.993 178.723 117.746 160.388 119.782 154.735C121.411 150.213 127.324 138.656 129.161 133.129C114.858 137.008 108.33 156.733 105.643 169.831C103.559 179.988 100.539 195.935 100.721 204.306C101.057 219.754 102.839 257.337 122.974 264.936C104.884 261.183 82.2303 241.779 74.2769 226.095C65.4095 208.609 67.6958 188.201 69.679 181.101C71.6623 174.001 81.2331 149.182 86.64 140.974C90.9654 134.407 94.4267 127.985 95.6167 125.594C96.8035 123.491 97.8896 119.962 92.7393 122.671C87.5891 125.38 80.6272 134.38 77.7901 138.542C75.5771 142.312 70.7459 150.811 69.1248 154.644C67.0985 159.436 61.0625 176.12 60.1494 182.391C59.2363 188.663 58.214 198.655 59.68 206.473C60.8528 212.727 63.8882 219.477 65.2593 222.07C50.633 218.349 28.8774 198.621 26.7746 172.307C24.7504 146.978 42.2613 130.554 58.1192 115.504C60.1287 113.985 64.0848 108.372 55.434 109.846C34.2909 113.45 18.1769 140.637 14.5319 159.635C10.4124 156.92 2.08114 138.96 1.64585 127.882C1.01537 111.836 8.94044 97.4475 22.6667 89.6684M297.634 242.362C289.627 235.852 264.95 215.63 258.115 209.66C250.806 203.276 231.218 193.369 211.149 163.627M102.505 99.8489C95.467 93.4525 87.9469 88.3659 81.7984 85.1375C75.6498 81.9091 63.2165 79.552 48.2673 80.8507C40.0286 81.5665 30.3044 85.3399 22.6667 89.6684M102.505 99.8489C89.9249 99.4328 29.9198 95.801 18.8952 118.378M102.505 99.8489C86.9869 95.1171 53.3259 85.7006 42.8268 85.8892C32.3277 86.0778 25.0121 88.4873 22.6667 89.6684M129.784 107.954C123.987 112.975 110.93 126.245 105.075 139.153C97.7555 155.287 86.6586 182.969 84.6855 202.678C83.1069 218.445 85.656 228.629 87.1278 231.75M129.784 107.954C126.037 106.212 122.67 104.783 119.744 103.643M129.784 107.954C132.542 109.236 135.505 110.687 138.65 112.316M151.223 119.266C147.591 122.913 139.708 137.209 137.238 165.214C134.15 200.221 136.697 217.614 141.028 234.729C144.492 248.421 149.027 257.856 150.861 260.861M151.223 119.266C146.782 116.66 142.575 114.35 138.65 112.316M151.223 119.266C157.054 122.687 163.289 126.615 169.821 131.091M182.511 140.225C185.909 142.791 189.364 145.497 192.861 148.347C199.618 153.854 205.686 158.938 211.149 163.627M182.511 140.225C180.777 146.799 180.386 165.039 183.16 189.187C186.699 219.99 189.474 224.568 197.85 245.663C203.094 258.871 211.927 265.567 216.265 267.747M182.511 140.225C178.181 136.956 173.942 133.915 169.821 131.091M119.744 103.643C128.925 94.1092 150.8 73.5268 164.859 67.4684C182.433 59.8955 191.911 54.9539 206.149 52.0026M138.65 112.316C141.634 107.642 154.114 96.9822 180.167 91.7313C212.733 85.1678 229.813 84.1756 257.765 86.3354C280.127 88.0633 290.943 94.7339 293.556 97.8532M169.821 131.091C177.494 129.54 200.272 126.198 230.002 125.24C259.731 124.283 291.595 141.436 303.81 150.132M211.149 163.627C226.597 168.639 267.444 190.7 277.572 199.365C287.7 208.031 297.292 219.074 300.822 223.512" stroke="white" stroke-width="2" stroke-linecap="round" stroke-linejoin="round"/>
</svg>

<svg xmlns="http://www.w3.org/2000/svg" width="330" height="287" fill="none"><path stroke="#fff" stroke-linecap="round" stroke-linejoin="round" stroke-width="2" d="M111.383 100.799c-9.786-13.213-22.519-41.288-14.342-59.335C112.21 7.987 166.004-5.209 183.991 5.22c-4.252.363-17.65 5.53-31.624 14.312-12.703 7.983-17.951 29.004-1.571 15.3 5.734-4.798 22.279-17.355 33.186-19.92 22.089-5.192 43.387-1.62 57.541 11.815-9.9-.306-28.888-.13-49.323 7.206-25.544 9.17-35.008 21.042-34.474 22.282.534 1.239-.206-.206 23.208-9.683 37.327-15.109 82.875-14.885 108.35 22.084-25.126-16.745-47.192-12.908-77.532-8.475-14.886 2.175-41.521 12.727-38.439 15.685 3.083 2.958 6.756.885 18.587-2.131 11.83-3.016 36.209-4.578 51.21-3.328 33.051 2.756 66.823 2.405 83.113 58.19-27.674-27.797-66.764-30.95-100.449-32.254-7.138-.276-51.376 2.213-49.469 13.624 1.146 6.854 21.514 2.082 27.245 1.694 5.732-.388 32.256-2.72 39.832-2.801 7.577-.081 23.899-.624 43.833 8.542 19.935 9.166 29.75 21.346 32.725 25.82 2.974 4.474 8.519 19.106 8.138 29.924-.305 8.655-.154 17.823-.04 21.325-4.337-6.826-16.213-22.241-34.455-33.484-22.802-14.053-41.118-18.836-49.853-20.338-8.735-1.502-22.446-1.816-22.707 3.318-.262 5.133 13.585 12.219 20.42 15.274 6.836 3.055 22.932 9.863 28.876 13.057 5.943 3.194 22.43 14.689 32.978 24.594 10.548 9.904 12.854 18.568 14.058 32.621.963 11.243-8.043 35.413-11.106 39.713 2.096-6.618-.279-16.698-8.615-26.824M111.383 100.799l-8.878-.95m8.878.95c1.162-6.501.362-29.55 3.999-41.6 4.547-15.063 10.405-22.855 17.336-30.618M111.383 100.8c3.272-6.757 12.484-23.136 23.152-34.59 13.335-14.32 29.486-27.402 38.466-33.72m-61.618 68.31c2.118.575 4.938 1.511 8.361 2.844m-8.361-2.844c-32.221 5.257-73.49 49.568-65.874 82.478m252.125 59.085c-30.247-11.889-9.745 10.842-23.167 9.844-10.801-.802-22.329-4.188-41.418-25.965-11.607-13.241-26.557-53.198-32.213-43.49-6.476 11.114 1.84 35.546 17.324 56.338 19.062 25.596 46.428 30.173 48.834 31.341-3.764-.052-30.447 13.238-44.083 10.932-10.208-1.727-27.942-5.994-42.653-29.535-14.711-23.54-17.181-55.132-17.782-63.813-.48-6.944 2.019-26.3 3.329-35.11-.226-4.352-2.216-11.193-8.368-3.742-7.689 9.314-4.595 51.087-.515 70.27 4.656 21.892 20.951 51.225 39.748 65.764-7.068-1.241-28.632-2.321-42.22-8.417-16.985-7.621-27.809-15.148-34.243-34.051-6.433-18.903-8.195-34.927-7.705-49.466.491-14.539 5.244-32.874 7.28-38.527 1.629-4.522 7.542-16.079 9.379-21.606-14.303 3.879-20.831 23.604-23.518 36.702-2.084 10.157-5.104 26.104-4.922 34.475.336 15.448 2.118 53.031 22.253 60.63-18.09-3.753-40.744-23.157-48.697-38.841-8.868-17.486-6.581-37.894-4.598-44.994 1.983-7.1 11.554-31.919 16.961-40.127 4.325-6.567 7.787-12.989 8.977-15.38 1.186-2.103 2.273-5.632-2.878-2.923-5.15 2.709-12.112 11.709-14.949 15.871-2.213 3.77-7.044 12.269-8.665 16.102-2.026 4.792-8.063 21.476-8.976 27.747-.913 6.272-1.935 16.264-.469 24.082 1.173 6.254 4.208 13.004 5.58 15.597-14.627-3.721-36.383-23.449-38.485-49.763-2.025-25.329 15.486-41.753 31.344-56.803 2.01-1.519 5.966-7.132-2.685-5.658-21.143 3.604-37.257 30.791-40.902 49.789-4.12-2.715-12.45-20.675-12.886-31.753-.63-16.046 7.294-30.434 21.02-38.214m274.968 152.694c-8.007-6.51-32.684-26.732-39.519-32.702-7.309-6.384-26.897-16.291-46.966-46.033M102.505 99.849c-7.038-6.397-14.558-11.483-20.707-14.712-6.148-3.228-18.581-5.585-33.53-4.286-8.24.716-17.964 4.489-25.601 8.817m79.838 10.18c-12.58-.415-72.585-4.047-83.61 18.53m83.61-18.53c-15.518-4.73-49.18-14.147-59.678-13.959-10.5.189-17.815 2.598-20.16 3.78m107.117 18.285c-5.797 5.021-18.854 18.291-24.709 31.199-7.32 16.134-18.416 43.816-20.39 63.525-1.578 15.767.971 25.951 2.443 29.072m42.656-123.796a172.837 172.837 0 0 0-10.04-4.311m10.04 4.311a231.302 231.302 0 0 1 8.866 4.362m12.573 6.95c-3.632 3.647-11.515 17.943-13.985 45.948-3.088 35.007-.541 52.4 3.79 69.515 3.464 13.692 7.999 23.127 9.833 26.132m.362-141.595a273.756 273.756 0 0 0-12.573-6.95m12.573 6.95a314.5 314.5 0 0 1 18.598 11.825m12.69 9.134a355.441 355.441 0 0 1 10.35 8.122 935.307 935.307 0 0 1 18.288 15.28m-28.638-23.402c-1.734 6.574-2.125 24.814.649 48.962 3.539 30.803 6.314 35.381 14.69 56.476 5.244 13.208 14.077 19.904 18.415 22.084m-33.754-127.522a340.75 340.75 0 0 0-12.69-9.134m-50.077-27.448c9.181-9.534 31.056-30.116 45.115-36.175 17.574-7.573 27.052-12.514 41.29-15.465m-67.499 60.313c2.984-4.674 15.464-15.334 41.517-20.585 32.566-6.563 49.646-7.555 77.598-5.396 22.362 1.728 33.178 8.399 35.791 11.518m-123.735 33.238c7.673-1.551 30.451-4.893 60.181-5.851 29.729-.957 61.593 16.196 73.808 24.892m-92.661 13.495c15.448 5.012 56.295 27.073 66.423 35.738 10.128 8.666 19.72 19.709 23.25 24.147"/></svg>
